.local/share/icons/Gruvbox-Plus-Dark/actions/16/view-pages-continuous.svg

<svg width="16" height="16" version="1.1" xmlns="http://www.w3.org/2000/svg">
  <defs>
    <style id="current-color-scheme" type="text/css">.ColorScheme-Text { color:#ebdbb2; } .ColorScheme-Highlight { color:#458588; }</style>
  </defs>
  <path class="ColorScheme-Text" d="m2 1v5s0 1 1 1h10s1 0 1-1v-5h-2v4h-8v-4zm4 7-4 4v3h2v-2.172l2.828-2.828h5.172v5h2v-6c0-1-1-1-1-1z" fill="currentColor"/>
</svg>

<svg xmlns="http://www.w3.org/2000/svg" width="16" height="16" version="1.1">
 <defs>
  <style id="current-color-scheme" type="text/css">
   .ColorScheme-Text { color:#555555; } .ColorScheme-Highlight { color:#4285f4; } .ColorScheme-NeutralText { color:#ff9800; } .ColorScheme-PositiveText { color:#4caf50; } .ColorScheme-NegativeText { color:#f44336; }
  </style>
 </defs>
 <path style="fill:currentColor" class="ColorScheme-Text" d="M 2 1 L 2 6 C 2 6 2 7 3 7 L 13 7 C 13 7 14 7 14 6 L 14 1 L 12 1 L 12 5 L 4 5 L 4 1 L 2 1 z M 6 8 L 2 12 L 2 15 L 4 15 L 4 12.828125 L 6.828125 10 L 12 10 L 12 15 L 14 15 L 14 9 C 14 8 13 8 13 8 L 6 8 z"/>
</svg>
